images/icons/contact.svg

<svg fill="#3273f5" height="12pt" viewBox="0 0 12 12" width="12pt" xmlns="http://www.w3.org/2000/svg"><path d="m11.488281.300781h-8.378906c-.28125 0-.511719.226563-.511719.507813v2.3125l-.382812-.574219c-.175782-.265625-.527344-.34375-.800782-.179687l-.789062.472656c-.257812.152344-.445312.398437-.5273438.6875-.2890622 1.046875-.0742187 2.851562 2.5742188 5.5 2.105469 2.105468 3.675781 2.671875 4.757813 2.671875.253906 0 .5-.03125.742187-.097657.289063-.078124.535156-.269531.6875-.527343l.472656-.789063c.164063-.269531.085938-.625-.179687-.800781l-1.886719-1.257813c-.261719-.171874-.605469-.113281-.800781.128907l-.546875.707031c-.058594.078125-.164063.097656-.246094.054688l-.105469-.058594c-.34375-.1875-.773437-.421875-1.636718-1.289063-.09375-.09375-.179688-.179687-.257813-.261719h7.816406c.28125 0 .511719-.226562.511719-.507812v-6.191406c0-.28125-.230469-.507813-.511719-.507813zm-6.113281 9.109375.101562.054688c.257813.144531.578126.078125.757813-.15625l.546875-.707032c.0625-.078124.175781-.097656.261719-.042968l1.886719 1.261718c.085937.054688.113281.171876.058593.257813l-.472656.789063c-.097656.171874-.257813.296874-.449219.347656-.945312.261718-2.597656.042968-5.109375-2.46875-2.515625-2.511719-2.734375-4.167969-2.472656-5.113282.054687-.1875.175781-.347656.347656-.449218l.789063-.472656c.089844-.054688.203125-.027344.261718.058593l1.257813 1.886719c.054687.085938.035156.199219-.042969.261719l-.707031.550781c-.230469.175781-.296875.5-.15625.753906l.058594.101563c.199219.367187.445312.824219 1.355469 1.730469.90625.90625 1.359374 1.15625 1.726562 1.355468zm6.226562-2.410156c-.003906.058594-.050781.105469-.113281.105469h-8.179687c-.257813-.296875-.480469-.621094-.664063-.972657l-.058593-.105468c-.046876-.082032-.023438-.1875.050781-.242188l.707031-.550781c.246094-.191406.300781-.539063.128906-.796875l-.476562-.714844v-2.914062c0-.027344.011718-.054688.035156-.078125.019531-.019531.046875-.03125.078125-.03125h8.378906c.03125 0 .058594.011719.078125.03125.023438.023437.035156.050781.035156.078125zm0 0"/><path d="m10.800781 1.226562-3.34375 2.535157c-.09375.070312-.222656.070312-.316406 0l-3.34375-2.535157c-.085937-.066406-.210937-.050781-.277344.039063-.070312.085937-.050781.214844.035157.28125l3.34375 2.535156c.238281.175781.5625.175781.800781 0l3.34375-2.535156c.042969-.035156.070312-.082031.078125-.132813.007812-.054687-.007813-.105468-.039063-.148437-.066406-.089844-.191406-.105469-.28125-.039063zm0 0"/><path d="m5.589844 4.097656-2.046875 2.195313c-.074219.082031-.070313.207031.007812.28125.082031.074219.207031.070312.285157-.007813l2.046874-2.195312c.070313-.082032.0625-.203125-.015624-.277344-.078126-.070312-.199219-.070312-.277344.003906zm0 0"/><path d="m9.019531 4.097656c-.074219-.082031-.203125-.085937-.28125-.011718-.082031.078124-.085937.203124-.011719.285156l2.046876 2.195312c.078124.078125.203124.085938.285156.007813.082031-.074219.085937-.199219.007812-.28125zm0 0"/></svg>

<?xml version="1.0" encoding="UTF-8"?>
<svg xmlns="http://www.w3.org/2000/svg" xmlns:xlink="http://www.w3.org/1999/xlink" width="12pt" height="12pt" viewBox="0 0 12 12" version="1.1" fill="#3273f5">
<g id="surface1">
<path d="M 11.488281 0.300781 L 3.109375 0.300781 C 2.828125 0.300781 2.597656 0.527344 2.597656 0.808594 L 2.597656 3.121094 L 2.214844 2.546875 C 2.039062 2.28125 1.6875 2.203125 1.414062 2.367188 L 0.625 2.839844 C 0.367188 2.992188 0.179688 3.238281 0.0976562 3.527344 C -0.191406 4.574219 0.0234375 6.378906 2.671875 9.027344 C 4.777344 11.132812 6.347656 11.699219 7.429688 11.699219 C 7.683594 11.699219 7.929688 11.667969 8.171875 11.601562 C 8.460938 11.523438 8.707031 11.332031 8.859375 11.074219 L 9.332031 10.285156 C 9.496094 10.015625 9.417969 9.660156 9.152344 9.484375 L 7.265625 8.226562 C 7.003906 8.054688 6.660156 8.113281 6.464844 8.355469 L 5.917969 9.0625 C 5.859375 9.140625 5.753906 9.160156 5.671875 9.117188 L 5.566406 9.058594 C 5.222656 8.871094 4.792969 8.636719 3.929688 7.769531 C 3.835938 7.675781 3.75 7.589844 3.671875 7.507812 L 11.488281 7.507812 C 11.769531 7.507812 12 7.28125 12 7 L 12 0.808594 C 12 0.527344 11.769531 0.300781 11.488281 0.300781 Z M 5.375 9.410156 L 5.476562 9.464844 C 5.734375 9.609375 6.054688 9.542969 6.234375 9.308594 L 6.78125 8.601562 C 6.84375 8.523438 6.957031 8.503906 7.042969 8.558594 L 8.929688 9.820312 C 9.015625 9.875 9.042969 9.992188 8.988281 10.078125 L 8.515625 10.867188 C 8.417969 11.039062 8.257812 11.164062 8.066406 11.214844 C 7.121094 11.476562 5.46875 11.257812 2.957031 8.746094 C 0.441406 6.234375 0.222656 4.578125 0.484375 3.632812 C 0.539062 3.445312 0.660156 3.285156 0.832031 3.183594 L 1.621094 2.710938 C 1.710938 2.65625 1.824219 2.683594 1.882812 2.769531 L 3.140625 4.65625 C 3.195312 4.742188 3.175781 4.855469 3.097656 4.917969 L 2.390625 5.46875 C 2.160156 5.644531 2.09375 5.96875 2.234375 6.222656 L 2.292969 6.324219 C 2.492188 6.691406 2.738281 7.148438 3.648438 8.054688 C 4.554688 8.960938 5.007812 9.210938 5.375 9.410156 Z M 11.601562 7 C 11.597656 7.058594 11.550781 7.105469 11.488281 7.105469 L 3.308594 7.105469 C 3.050781 6.808594 2.828125 6.484375 2.644531 6.132812 L 2.585938 6.027344 C 2.539062 5.945312 2.5625 5.839844 2.636719 5.785156 L 3.34375 5.234375 C 3.589844 5.042969 3.644531 4.695312 3.472656 4.4375 L 2.996094 3.722656 L 2.996094 0.808594 C 2.996094 0.78125 3.007812 0.753906 3.03125 0.730469 C 3.050781 0.710938 3.078125 0.699219 3.109375 0.699219 L 11.488281 0.699219 C 11.519531 0.699219 11.546875 0.710938 11.566406 0.730469 C 11.589844 0.753906 11.601562 0.78125 11.601562 0.808594 Z M 11.601562 7 "/>
<path d="M 10.800781 1.226562 L 7.457031 3.761719 C 7.363281 3.832031 7.234375 3.832031 7.140625 3.761719 L 3.796875 1.226562 C 3.710938 1.160156 3.585938 1.175781 3.519531 1.265625 C 3.449219 1.351562 3.46875 1.480469 3.554688 1.546875 L 6.898438 4.082031 C 7.136719 4.257812 7.460938 4.257812 7.699219 4.082031 L 11.042969 1.546875 C 11.085938 1.511719 11.113281 1.464844 11.121094 1.414062 C 11.128906 1.359375 11.113281 1.308594 11.082031 1.265625 C 11.015625 1.175781 10.890625 1.160156 10.800781 1.226562 Z M 10.800781 1.226562 "/>
<path d="M 5.589844 4.097656 L 3.542969 6.292969 C 3.46875 6.375 3.472656 6.5 3.550781 6.574219 C 3.632812 6.648438 3.757812 6.644531 3.835938 6.566406 L 5.882812 4.371094 C 5.953125 4.289062 5.945312 4.167969 5.867188 4.09375 C 5.789062 4.023438 5.667969 4.023438 5.589844 4.097656 Z M 5.589844 4.097656 "/>
<path d="M 9.019531 4.097656 C 8.945312 4.015625 8.816406 4.011719 8.738281 4.085938 C 8.65625 4.164062 8.652344 4.289062 8.726562 4.371094 L 10.773438 6.566406 C 10.851562 6.644531 10.976562 6.652344 11.058594 6.574219 C 11.140625 6.5 11.144531 6.375 11.066406 6.292969 Z M 9.019531 4.097656 "/>
</g>
</svg>
